X: 30722
T: NEW YORK VOLUNTEERS
C:
%R: reel, polka
B: Elias Howe "The Musician's Companion" Part 3 1844 p.72 #2
S: http://imslp.org/wiki/The_Musician's_Companion_(Howe,_Elias)
Z: 2015 John Chambers <jc:trillian.mit.edu>
M: 2/4
L: 1/16
K: D
% - - - - - - - - - - - - - - - - - - - - - - - - -
dB |\
A2F2 F2dB | AFDF E2dB | A2F2 F2DF | EDEF E2FG |\
A3B AGFE | DFAB A2fe | d2B2 BAGB | A2D2D2 :|
|: A2 |\
defd A2A2 | defd A2A2 | dcde fefg | a2A2 A2A2 |\
defd efge | fgaf gfef | d2B2 BAGB | A2D2D2 :|
% - - - - - - - - - - - - - - - - - - - - - - - - -
